Numix-GalliumOS/16/actions/edit-table-insert-column-left.svg

<svg xmlns="http://www.w3.org/2000/svg" viewBox="0 0 16 16">
 <rect width="3" height="11" x="6" y="3" style="fill:#cecece;opacity:1;fill-opacity:1;stroke:none;fill-rule:nonzero"/>
 <rect y="3" x="2" height="11" width="3" style="fill:#61e24e;opacity:1;fill-opacity:1;stroke:none;fill-rule:nonzero"/>
 <path d="m 1 2 0 13 13 0 0 -13 m -12 1 3 0 0 3 -3 0 m 4 -3 3 0 0 3 -3 0 m 4 -3 3 0 0 3 -3 0 z m -8 4 3 0 0 3 -3 0 z m 4 0 3 0 0 3 -3 0 z m 4 0 3 0 0 3 -3 0 z m -8 4 3 0 0 3 -3 0 z m 4 0 3 0 0 3 -3 0 z m 4 0 3 0 0 3 -3 0 z" style="fill:#888"/>
</svg>

<?xml version="1.0" encoding="UTF-8" standalone="no"?>
<svg
   xmlns:dc="http://purl.org/dc/elements/1.1/"
   xmlns:cc="http://creativecommons.org/ns#"
   xmlns:rdf="http://www.w3.org/1999/02/22-rdf-syntax-ns#"
   xmlns:svg="http://www.w3.org/2000/svg"
   xmlns="http://www.w3.org/2000/svg"
   xmlns:sodipodi="http://sodipodi.sourceforge.net/DTD/sodipodi-0.dtd"
   xmlns:inkscape="http://www.inkscape.org/namespaces/inkscape"
   width="16"
   height="16"
   viewBox="0 0 16 16"
   id="svg2"
   version="1.1"
   inkscape:version="0.91 r13725"
   sodipodi:docname="edit-table-insert-column-left.svg">
  <metadata
     id="metadata18">
    <rdf:RDF>
      <cc:Work
         rdf:about="">
        <dc:format>image/svg+xml</dc:format>
        <dc:type
           rdf:resource="http://purl.org/dc/dcmitype/StillImage" />
        <dc:title />
      </cc:Work>
    </rdf:RDF>
  </metadata>
  <defs
     id="defs16" />
  <sodipodi:namedview
     pagecolor="#ffffff"
     bordercolor="#666666"
     borderopacity="1"
     objecttolerance="10"
     gridtolerance="10"
     guidetolerance="10"
     inkscape:pageopacity="0"
     inkscape:pageshadow="2"
     inkscape:window-width="1366"
     inkscape:window-height="704"
     id="namedview14"
     showgrid="true"
     inkscape:zoom="22.627417"
     inkscape:cx="1.9541402"
     inkscape:cy="7.8540627"
     inkscape:window-x="0"
     inkscape:window-y="27"
     inkscape:window-maximized="1"
     inkscape:current-layer="svg2"
     inkscape:object-nodes="true">
    <inkscape:grid
       type="xygrid"
       id="grid4146" />
  </sodipodi:namedview>
  <rect
     style="opacity:1;fill:#cecece;fill-opacity:1;fill-rule:nonzero;stroke:none;stroke-width:1;stroke-linejoin:round;stroke-miterlimit:4;stroke-dasharray:none;stroke-opacity:1"
     id="rect4134"
     width="3"
     height="11"
     x="6"
     y="3" />
  <rect
     y="3"
     x="2"
     height="11"
     width="3"
     id="rect4135"
     style="opacity:1;fill:#61e24e;fill-opacity:1;fill-rule:nonzero;stroke:none;stroke-width:1;stroke-linejoin:round;stroke-miterlimit:4;stroke-dasharray:none;stroke-opacity:1" />
  <path
     style="fill:#888888"
     d="M 1,2 1,15 14,15 14,2 Z M 2,3 5,3 5,6 2,6 Z M 6,3 9,3 9,6 6,6 Z m 4,0 3,0 0,3 -3,0 z m -8,4 3,0 0,3 -3,0 z m 4,0 3,0 0,3 -3,0 z m 4,0 3,0 0,3 -3,0 z m -8,4 3,0 0,3 -3,0 z m 4,0 3,0 0,3 -3,0 z m 4,0 3,0 0,3 -3,0 z"
     id="path6"
     inkscape:connector-curvature="0"
     sodipodi:nodetypes="cccccccccccccccccccccccccccccccccccccccccccccccccc" />
</svg>
